X:1
T:Title
%%score { ( 1 3 ) | ( 2 4 ) }
L:1/8
M:3/4
K:F
V:1 treble nm="Grand Piano"
V:3 treble 
V:2 bass 
V:4 bass 
V:1
 z2 z2[Q:1/4=96] F>G | A3 A B>d | c2 A2 (3[Ac]B[CFA] | [CEG]3 [B,EG] [A,DF]>[CEG] |[M:2/4] A4 | %5
[M:1/4] F>G |[M:3/4] A3 A B>d | c2 A2 (3[Ac]BA | G3 c e>d |[M:2/4] [CEc]4 | %10
[M:4/4] d>c cB [GB]-[CGB] [EGB]2 | c>B BA [FA]-[CFA] A2 | [GB]>[FA] [FA]2 [EG]2 [EG]A | %13
 [EGB]>[EAc] [FBd]2 [FAc]2 [FAc]2 |[M:3/4] d>c cB [GB]-[CGB] |[M:1/4] [EGB]2 | c>B | %17
[M:4/4] BA[FA]-[CFA] A2 [GB]>[FA] | [DA]2 [DG]2 D2 E2 |[M:3/4] G4 F2 |] %20
V:2
 z2 z2 [F,A,]>[F,A,F] | [F,CF]3 [F,CF] [F,DF]>[F,B,F] | [F,A,F]2 [F,CF]2 (3[F,C]-[F,CG]F, | %3
 C,3 C, D,>C, |[M:2/4] [F,CF]4 |[M:1/4] [F,A,]>[F,B,F] |[M:3/4] [F,CF]3 [F,CF] [F,DF]>[F,B,F] | %7
 [F,A,F]2 [F,CF]2 (3[F,C]-[F,CG][K:treble][F,CF] | [G,CE]3 [G,CE] [G,CG]>[G,=B,F] | %9
[M:2/4][K:bass] C,4 |[M:4/4][K:treble] B>A AG[K:bass] C,C, C,2 | A>G GF[K:bass] F,F, [F,F]2 | %12
 [F,C]>[F,C] [C,C]2 [C,C]2 z F | C,>C, F,2 F,2 F,2 |[M:3/4][K:treble] B>A AG[K:bass] C,C, | %15
[M:1/4] C,2 | A>G |[M:4/4] GF[K:bass]F,F, [F,F]2 [F,C]>[F,C] | [B,,B,]2 [B,,B,]2 [C,B,]2 [C,B,C]2 | %19
[M:3/4] [F,B,C]4 [F,A,C]2 |] %20
V:3
 x6 | x6 | x6 | x6 |[M:2/4] x4 |[M:1/4] x2 |[M:3/4] x6 | x6 | x6 |[M:2/4] x4 |[M:4/4] z4 .D2 z2 | %11
 z4 .D2 z2 | x8 | x8 |[M:3/4] z2 z2 .D2 |[M:1/4] x2 | x2 |[M:4/4] z2 .D2 z4 | x8 |[M:3/4] x6 |] %20
V:4
 x6 | x6 | x6 | x6 |[M:2/4] x4 |[M:1/4] x2 |[M:3/4] x6 | x16/3[K:treble] x2/3 | x6 | %9
[M:2/4][K:bass] x4 |[M:4/4][K:treble] x4[K:bass] x4 | x4[K:bass] x4 | z4 z2 [C,C]2 | x8 | %14
[M:3/4][K:treble] x4[K:bass] x2 |[M:1/4] x2 | x2 |[M:4/4] x2[K:bass] x6 | x8 |[M:3/4] x6 |] %20

